source/img/sprite/logo.svg

<svg width="119" height="39" viewBox="0 0 119 39" fill="none" xmlns="http://www.w3.org/2000/svg">
<rect x="15.0078" y="38.9573" width="7.00359" height="3.00154" transform="rotate(-90 15.0078 38.9573)" fill="#1D5CBB"/>
<mask id="mask0_558_1787" style="mask-type:alpha" maskUnits="userSpaceOnUse" x="0" y="0" width="34" height="33">
<rect y="11.1177" width="12.5064" height="23.5121" transform="rotate(-26.999 0 11.1177)" fill="#C4C4C4"/>
<rect x="11.1309" y="19.3846" width="12.5064" height="23.5121" transform="rotate(-108.7 11.1309 19.3846)" fill="#C4C4C4"/>
</mask>
<g mask="url(#mask0_558_1787)">
<circle cx="16.5093" cy="16.4459" r="9.25475" stroke="#1D5CBB" stroke-width="2.50128"/>
</g>
<path d="M43.7594 28.5393V14.5595H52.7152V16.6824H46.2918V20.4777H52.1008V22.6006H46.2918V28.5393H43.7594ZM54.9132 28.5393V18.0544H57.3842V28.5393H54.9132ZM56.1555 16.5664C55.7642 16.5664 55.4274 16.4367 55.1453 16.1773C54.8631 15.9133 54.722 15.5971 54.722 15.2284C54.722 14.8553 54.8631 14.539 55.1453 14.2796C55.4274 14.0157 55.7642 13.8837 56.1555 13.8837C56.5514 13.8837 56.8882 14.0157 57.1658 14.2796C57.4479 14.539 57.589 14.8553 57.589 15.2284C57.589 15.5971 57.4479 15.9133 57.1658 16.1773C56.8882 16.4367 56.5514 16.5664 56.1555 16.5664ZM62.3963 22.3958V28.5393H59.9252V18.0544H62.287V19.8361H62.4099C62.6511 19.249 63.0356 18.7826 63.5635 18.4367C64.096 18.0909 64.7535 17.9179 65.5363 17.9179C66.2598 17.9179 66.8901 18.0726 67.4271 18.3821C67.9686 18.6915 68.3873 19.1398 68.6831 19.7268C68.9834 20.3139 69.1313 21.0261 69.1268 21.8634V28.5393H66.6557V22.2457C66.6557 21.5448 66.4737 20.9965 66.1097 20.6006C65.7501 20.2047 65.2518 20.0067 64.6147 20.0067C64.1824 20.0067 63.7979 20.1023 63.4611 20.2934C63.1289 20.48 62.8673 20.7507 62.6761 21.1057C62.4896 21.4607 62.3963 21.8907 62.3963 22.3958ZM75.5296 28.7236C74.706 28.7236 73.9687 28.512 73.318 28.0888C72.6672 27.6656 72.153 27.0512 71.7753 26.2457C71.3976 25.4403 71.2087 24.4619 71.2087 23.3105C71.2087 22.1455 71.3999 21.1626 71.7821 20.3617C72.1689 19.5562 72.69 18.9487 73.3453 18.5391C74.0006 18.125 74.731 17.9179 75.5365 17.9179C76.1508 17.9179 76.6559 18.0226 77.0519 18.2319C77.4478 18.4367 77.7618 18.6847 77.9939 18.976C78.2259 19.2627 78.4057 19.5334 78.5331 19.7883H78.6355V14.5595H81.1134V28.5393H78.6833V26.8874H78.5331C78.4057 27.1422 78.2214 27.413 77.9802 27.6997C77.739 27.9818 77.4205 28.223 77.0246 28.4233C76.6286 28.6235 76.1303 28.7236 75.5296 28.7236ZM76.2191 26.6963C76.7424 26.6963 77.1884 26.5552 77.557 26.273C77.9256 25.9864 78.2055 25.5882 78.3966 25.0785C78.5877 24.5688 78.6833 23.9749 78.6833 23.2969C78.6833 22.6188 78.5877 22.0295 78.3966 21.5289C78.21 21.0283 77.9324 20.6393 77.5638 20.3617C77.1998 20.0841 76.7515 19.9453 76.2191 19.9453C75.6684 19.9453 75.2088 20.0886 74.8402 20.3753C74.4716 20.662 74.194 21.0579 74.0074 21.5631C73.8209 22.0682 73.7276 22.6461 73.7276 23.2969C73.7276 23.9522 73.8209 24.5369 74.0074 25.0512C74.1986 25.5609 74.4784 25.9636 74.847 26.2594C75.2202 26.5506 75.6775 26.6963 76.2191 26.6963ZM83.8558 28.5393V14.5595H92.9481V16.6824H86.3882V20.4777H92.4771V22.6006H86.3882V26.4164H93.0027V28.5393H83.8558ZM99.3134 28.7236C98.4897 28.7236 97.7525 28.512 97.1018 28.0888C96.451 27.6656 95.9368 27.0512 95.5591 26.2457C95.1814 25.4403 94.9925 24.4619 94.9925 23.3105C94.9925 22.1455 95.1836 21.1626 95.5659 20.3617C95.9527 19.5562 96.4738 18.9487 97.1291 18.5391C97.7844 18.125 98.5148 17.9179 99.3202 17.9179C99.9346 17.9179 100.44 18.0226 100.836 18.2319C101.232 18.4367 101.546 18.6847 101.778 18.976C102.01 19.2627 102.189 19.5334 102.317 19.7883H102.419V14.5595H104.897V28.5393H102.467V26.8874H102.317C102.189 27.1422 102.005 27.413 101.764 27.6997C101.523 27.9818 101.204 28.223 100.808 28.4233C100.412 28.6235 99.9141 28.7236 99.3134 28.7236ZM100.003 26.6963C100.526 26.6963 100.972 26.5552 101.341 26.273C101.709 25.9864 101.989 25.5882 102.18 25.0785C102.372 24.5688 102.467 23.9749 102.467 23.2969C102.467 22.6188 102.372 22.0295 102.18 21.5289C101.994 21.0283 101.716 20.6393 101.348 20.3617C100.984 20.0841 100.535 19.9453 100.003 19.9453C99.4522 19.9453 98.9926 20.0886 98.624 20.3753C98.2554 20.662 97.9778 21.0579 97.7912 21.5631C97.6046 22.0682 97.5113 22.6461 97.5113 23.2969C97.5113 23.9522 97.6046 24.5369 97.7912 25.0512C97.9823 25.5609 98.2622 25.9636 98.6308 26.2594C99.004 26.5506 99.4613 26.6963 100.003 26.6963ZM114.213 24.1297V18.0544H116.684V28.5393H114.288V26.6758H114.179C113.942 27.2628 113.553 27.7429 113.012 28.1161C112.475 28.4892 111.813 28.6758 111.025 28.6758C110.338 28.6758 109.731 28.5234 109.203 28.2185C108.679 27.909 108.27 27.4608 107.974 26.8737C107.678 26.2821 107.53 25.5677 107.53 24.7304V18.0544H110.001V24.3481C110.001 25.0125 110.183 25.5404 110.547 25.9317C110.912 26.3231 111.389 26.5188 111.981 26.5188C112.345 26.5188 112.698 26.43 113.039 26.2526C113.38 26.0751 113.66 25.8111 113.879 25.4607C114.102 25.1058 114.213 24.6621 114.213 24.1297Z" fill="#1D5CBB"/>
</svg>

<svg width="119" height="39" fill="none" xmlns="http://www.w3.org/2000/svg">
<path fill="currentColor" d="M15.008 38.957v-7.004h3.002v7.004z"/>
<mask id="a" style="mask-type:alpha" maskUnits="userSpaceOnUse" x="0" y="0" width="34" height="33">
<path transform="rotate(-26.999 0 11.118)" fill="currentColor" d="M0 11.118h12.506V34.63H0z"/>
<path transform="rotate(-108.7 11.13 19.385)" fill="currentColor" d="M11.131 19.385h12.506v23.512H11.131z"/>
</mask>
<g mask="url(#a)">
<circle cx="16.509" cy="16.446" r="9.255" stroke="currentColor" stroke-width="2.501"/>
</g>
<path d="M43.76 28.54V14.56h8.955v2.122h-6.423v3.796H52.1V22.6h-5.81v5.938H43.76Zm11.153 0V18.053h2.471V28.54h-2.47Zm1.243-11.974c-.392 0-.729-.13-1.01-.389a1.254 1.254 0 0 1-.424-.949c0-.373.141-.689.423-.948a1.428 1.428 0 0 1 1.01-.396c.396 0 .733.132 1.01.396.283.259.424.575.424.948 0 .37-.141.685-.423.95-.278.259-.615.388-1.01.388Zm6.24 5.83v6.143h-2.47V18.054h2.361v1.782h.123a2.997 2.997 0 0 1 1.154-1.4c.532-.345 1.19-.518 1.972-.518.724 0 1.354.155 1.891.464.542.31.96.758 1.256 1.345.3.587.448 1.3.444 2.136v6.676h-2.471v-6.293c0-.701-.182-1.25-.546-1.645-.36-.396-.858-.594-1.495-.594-.433 0-.817.095-1.154.286a1.988 1.988 0 0 0-.785.813c-.186.355-.28.785-.28 1.29Zm13.134 6.328c-.824 0-1.561-.212-2.212-.635-.65-.423-1.165-1.038-1.543-1.843-.377-.806-.566-1.784-.566-2.935 0-1.166.19-2.148.573-2.95.387-.805.908-1.412 1.563-1.822a4.017 4.017 0 0 1 2.192-.621c.614 0 1.119.105 1.515.314.396.205.71.453.942.744.232.287.412.557.54.812h.101V14.56h2.478v13.98h-2.43v-1.652h-.15a4.222 4.222 0 0 1-.553.813c-.241.282-.56.523-.955.723-.396.2-.895.3-1.495.3Zm.69-2.028c.522 0 .968-.14 1.337-.423.369-.287.648-.685.84-1.195.19-.51.286-1.103.286-1.781 0-.678-.095-1.268-.286-1.768-.187-.5-.465-.89-.833-1.167-.364-.278-.813-.417-1.345-.417-.55 0-1.01.144-1.379.43-.368.287-.646.683-.833 1.188-.186.505-.28 1.083-.28 1.734 0 .655.094 1.24.28 1.754.192.51.471.913.84 1.208.373.292.83.437 1.372.437Zm7.636 1.843V14.56h9.092v2.123h-6.56v3.796h6.09V22.6h-6.09v3.815h6.615v2.123h-9.147Zm15.457.185c-.823 0-1.56-.212-2.211-.635-.651-.423-1.165-1.038-1.543-1.843-.378-.806-.566-1.784-.566-2.935 0-1.166.19-2.148.573-2.95.387-.805.908-1.412 1.563-1.822a4.017 4.017 0 0 1 2.191-.621c.615 0 1.12.105 1.516.314.396.205.71.453.942.744.232.287.411.557.539.812h.102V14.56h2.478v13.98h-2.43v-1.652h-.15a4.26 4.26 0 0 1-.553.813c-.241.282-.56.523-.956.723-.396.2-.894.3-1.495.3Zm.69-2.028c.523 0 .969-.14 1.338-.423.368-.287.648-.685.839-1.195.192-.51.287-1.103.287-1.781 0-.678-.095-1.268-.287-1.768-.186-.5-.464-.89-.832-1.167-.364-.278-.813-.417-1.345-.417-.55 0-1.01.144-1.379.43-.369.287-.646.683-.833 1.188-.186.505-.28 1.083-.28 1.734 0 .655.094 1.24.28 1.754.191.51.471.913.84 1.208.373.292.83.437 1.372.437Zm14.21-2.566v-6.076h2.471V28.54h-2.396v-1.863h-.109a3.158 3.158 0 0 1-1.167 1.44c-.537.373-1.199.56-1.987.56-.687 0-1.294-.153-1.822-.457-.524-.31-.933-.758-1.229-1.345-.296-.592-.444-1.306-.444-2.144v-6.676h2.471v6.294c0 .665.182 1.192.546 1.584.365.391.842.587 1.434.587.364 0 .717-.089 1.058-.266.341-.178.621-.442.84-.792.223-.355.334-.799.334-1.331Z" fill="currentColor"/></svg>
